icon-themes/breeze_svg/cmd/lc_showprecedents.svg

<svg viewBox="0 0 24 24" xmlns="http://www.w3.org/2000/svg"><path d="m12 5v.6855469l1.15625 1.1582031-1.15625 1.15625h3v-3l-1.15625 1.15625-1.15625-1.15625zm0 11 1.15625 1.15625-1.15625 1.158203v.685547h.6875l1.15625-1.15625 1.15625 1.15625v-3z" fill="#1d99f3"/><path d="m4 4v6h7v-6zm1 1h5v4h-5zm8 4v6h7v-6zm1 1h5v4h-5zm-10 4v6h7v-6zm1 1h5v4h-5z" fill="#4d4d4d"/></svg>

<svg viewBox="0 0 24 24" xmlns="http://www.w3.org/2000/svg">
  <path
     style="fill:#1d99f3"
     d="M 12 5 L 12 5.6855469 L 13.15625 6.84375 L 12 8 L 15 8 L 15 5 L 13.84375 6.15625 L 12.6875 5 L 12 5 z M 12 16 L 13.15625 17.15625 L 12 18.314453 L 12 19 L 12.6875 19 L 13.84375 17.84375 L 15 19 L 15 16 L 12 16 z "
     />
  <path
     style="fill:#4d4d4d"
     d="M 4 4 L 4 10 L 11 10 L 11 4 L 4 4 z M 5 5 L 10 5 L 10 9 L 5 9 L 5 5 z M 13 9 L 13 15 L 20 15 L 20 9 L 13 9 z M 14 10 L 19 10 L 19 14 L 14 14 L 14 10 z M 4 14 L 4 20 L 11 20 L 11 14 L 4 14 z M 5 15 L 10 15 L 10 19 L 5 19 L 5 15 z "
     />
</svg>
